icon-svg/aqara-h1-2.svg

<svg xmlns="http://www.w3.org/2000/svg" viewBox="0 0 24 24"><path fill="#44739e" d="M18.944 2.044 17.864 2l.046 20 .994-.069a.394.394 0 0 0 .366-.391V2.383a.34.34 0 0 0-.326-.339m-1.371.046-.772-.033h-.06l-6 .378-.025 19.074 6.311.491h.017l.346-.022a.063.063 0 0 0 .061-.063l-.02-17.723h.224V2.175a.084.084 0 0 0-.081-.085m-12.842.862v17.917a.167.167 0 0 0 .151.164l5.575.458V2.454l-5.628.393a.1.1 0 0 0-.1.1"/></svg>

<?xml version="1.0" encoding="UTF-8"?>
<svg width="24px" fill="#44739e" height="24px" viewBox="0 0 24 24" version="1.1" xmlns="http://www.w3.org/2000/svg" xmlns:xlink="http://www.w3.org/1999/xlink">
            <path d="M 18.943,2.044 17.863,2 17.909,22 18.903,21.931 A 0.394,0.394 0 0 0 19.269,21.54 V 2.383 A 0.339,0.339 0 0 0 18.943,2.044 M 17.572,2.09 16.8,2.057 h -0.06 l -6,0.378 -0.025,19.074 6.311,0.491 h 0.017 l 0.346,-0.022 A 0.063,0.063 0 0 0 17.45,21.915 L 17.43,4.192 h 0.224 V 2.175 A 0.084,0.084 0 0 0 17.573,2.09 v 0 M 4.731,2.952 v 17.917 a 0.167,0.167 0 0 0 0.151,0.164 l 5.575,0.458 V 2.454 L 4.829,2.847 a 0.1,0.1 0 0 0 -0.1,0.1"/>

</svg>
